X: 15
T: Lamplighter's Hornpipe
O: Trad
Z: John Chambers <jc:trillian.mit.edu>
N: Cole p.93
N: NEFR
M: C|
L: 1/8
K: A
|: cd | "A"[ee]c[ee]c eagf | [ee]c[ee]c eagf \
| [ee]c[ee]c "F#m"fedc | "Bm"d2B2 "E7"B2cd |
| "A"[ee]c[ee]c eagf | [ee]c[ee]c eagf \
| "E7"[ee]f[dd]e [cc]d[BB]c | "A"E2A2 A2 :|
|: cd | "A"edcd e2fe | "E7"dcBc d2ed \
| [cc]A[cc]e "F#m"dcBA | "Bm"GABc "E7"B2cd |
| "A"edcd e2fe | "E7"dcBc d2ed \
| "A"cagf "E7"edcB | "A"A2c2 A2 :|
%%sep 2 1 500
